!!!Melodie: eigene
!!!Typ: Lied
**kern	**silbe	**silbe	**silbe	**silbe	**silbe	**silbe	**silbe	**silbe
*clefG2	*lang:DE	*lang:DE	*lang:DE	*lang:DE	*lang:DE	*lang:DE	*lang:DE	*lang:DE
*k[b-]	*	*	*	*	*	*	*	*
*M2/2	*	*	*	*	*	*	*	*
4a	Wun#	Dei#	Him#	Gro#	O	was	Hal#	Hal#
4a	#der#	#ne	#mel,	#ßes	du	den	#le#	#le#
4a	#ba#	Va#	lo#	Licht	mei#	O#	#lu#	#lu#
4a	#rer	#ters	#be	der	#ne	#dem	#ja	#ja
=	=	=	=	=	=	=	=	=
2g	Kö#	Gü#	präch#	Son#	See#	ho#	bring#	sing#
2g	#nig,	#te	#tig	#ne,	#le,	#let,	#e,	#e,
=	=	=	=	=	=	=	=	=
4f	Herr#	hast	dei#	schie#	sing#	jauch#	wer	wel#
4f	#scher	du	#nes	#ße	#e	#ze,	den	#cher
4f	von	las#	Schöp#	dei#	fröh#	prei#	Her#	Chris#
4f	uns	#sen	#fers	#ne	#lich,	#se,	#ren	#tus
=	=	=	=	=	=	=	=	=
2e	al#	flie#	Ta#	Strah#	sing#	kling#	ken#	nen#
2e	#len,	#ßen,	#ten	#len,	#e,	#e;	#net,	#net,
=	=	=	=	=	=	=	=	=
*M3/2	*	*	*	*	*	*	*	*
4d	lass	ob	mehr	die	sing#	wirf	wer	sich
4d	dir	wir	als	das	#e	dich	den	von
4c	un#	schon	al#	gro#	dei#	in	Her#	Her#
4f	#ser	dich	#ler	#ße	#ne	den	#ren	#zen
4g	Lob	oft	Men#	Rund	Glau#	Staub	Je#	ihm
4a	ge#	ver#	#schen	be#	#bens#	dar#	#sum	er#
=	=	=	=	=	=	=	=	=
*M2/2	*	*	*	*	*	*	*	*
2g	#fal#	#lie#	Staa#	#ma#	#lie#	#nie#	lie#	#gi#
2f	#len.	#ßen.	#ten.	#len.	#der;	#der.	#bet;	#bet,
=:|	=	=	=	=	=	=	=	=
2a	.	Hilf	.	Lo#	.	Er	.	O
2a	.	uns	.	#bet	.	ist	.	wohl
=	=	=	=	=	=	=	=	=
1b-	.	noch,	.	gern,	.	Gott	.	dir!
=	=	=	=	=	=	=	=	=
2g	.	stärk	.	Mond	.	Ze#	.	Glau#
2g	.	uns	.	und	.	#ba#	.	#be
=	=	=	=	=	=	=	=	=
1a	.	doch;	.	Stern,	.	#oth,	.	mir:
=	=	=	=	=	=	=	=	=
4cc	.	lass	.	seid	.	er	.	end#
4cc	.	die	.	be#	.	ist	.	#lich
4b-	.	Zun#	.	#reit,	.	nur	.	wirst
4a	.	#ge	.	zu	.	zu	.	du
=	=	=	=	=	=	=	=	=
2g	.	sin#	.	eh#	.	lo#	.	dro#
2f	.	#gen,	.	#ren	.	#ben	.	#ben
=	=	=	=	=	=	=	=	=
4cc	.	lass	.	ei#	.	hier	.	oh#
4cc	.	die	.	#nen	.	und	.	#ne
4b-	.	Stim#	.	sol#	.	e#	.	Sünd’
4a	.	#me	.	#chen	.	#wig	.	ihn
=	=	=	=	=	=	=	=	=
2g	.	klin#	.	Her#	.	dro#	.	lo#
2f	.	#gen.	.	#ren.	.	#ben.	.	#ben.
==	==	==	==	==	==	==	==	==
*-	*-	*-	*-	*-	*-	*-	*-	*-
